images_sukapura_svg/cmd/lc_dbviewfunctions.svg

<svg viewBox="0 0 24 24" xmlns="http://www.w3.org/2000/svg" xmlns:xlink="http://www.w3.org/1999/xlink"><linearGradient id="a" gradientTransform="translate(-11 -1)" gradientUnits="userSpaceOnUse" x1="14" x2="13.79661" y1="22" y2="2.135593"><stop offset="0" stop-color="#0040dd"/><stop offset="1" stop-color="#0a84ff"/></linearGradient><linearGradient id="b" gradientUnits="userSpaceOnUse" x1="18" x2="18" xlink:href="#a" y1="22" y2="12"/><linearGradient id="c" gradientUnits="userSpaceOnUse" x1="7" x2="7" xlink:href="#a" y1="22" y2="2"/><path d="m3.5031599 22.000338 2.1038424-12.0457809h-2.1423273l.3207077-1.8344479h2.129499l.2309095-1.6420233q.333536-2.0910141 1.6163667-3.2712184 1.3469723-1.2315175 3.4379861-1.2058609.654244 0 1.654852.2180813l-.282223 1.9370743q-.615759-.128283-1.244346-.1539396-1.205861 0-1.9627307.7568701-.7440418.7440418-.9236381 1.9883876l-.2052529 1.3726289h2.8735407l-.320708 1.8344479h-2.8735404l-2.0910141 12.0457809z" fill="url(#c)"/><path d="m17.145363 15.648702 2.720749-3.646173h2.054443l-4.016344 5.034311 2.443122 4.978785h-1.823087l-1.656511-3.738716-2.822545 3.738716h-2.045189l4.136649-5.145362-2.369088-4.867734h1.832341z" fill="url(#b)"/></svg>

<?xml version="1.0" encoding="UTF-8" standalone="no"?>
<svg
   xmlns:dc="http://purl.org/dc/elements/1.1/"
   xmlns:cc="http://creativecommons.org/ns#"
   xmlns:rdf="http://www.w3.org/1999/02/22-rdf-syntax-ns#"
   xmlns:svg="http://www.w3.org/2000/svg"
   xmlns="http://www.w3.org/2000/svg"
   xmlns:xlink="http://www.w3.org/1999/xlink"
   xmlns:sodipodi="http://sodipodi.sourceforge.net/DTD/sodipodi-0.dtd"
   xmlns:inkscape="http://www.inkscape.org/namespaces/inkscape"
   viewBox="0 0 24 24"
   version="1.1"
   id="svg8"
   sodipodi:docname="lc_dbviewfunctions.svg"
   inkscape:export-filename="/home/rizmut/Dokumen/Rizmut/Github/libreoffice-style-sukapura/images_sukapura/cmd/lc_dbviewfunctions.png"
   inkscape:export-xdpi="96"
   inkscape:export-ydpi="96"
   inkscape:version="0.92.3 (unknown)">
  <metadata
     id="metadata14">
    <rdf:RDF>
      <cc:Work
         rdf:about="">
        <dc:format>image/svg+xml</dc:format>
        <dc:type
           rdf:resource="http://purl.org/dc/dcmitype/StillImage" />
      </cc:Work>
    </rdf:RDF>
  </metadata>
  <defs
     id="defs12">
    <linearGradient
       gradientTransform="translate(-11,-1)"
       id="a"
       gradientUnits="userSpaceOnUse"
       x1="14"
       x2="13.79661"
       y1="22"
       y2="2.1355929">
      <stop
         offset="0"
         stop-color="#0040dd"
         id="stop1492" />
      <stop
         offset="1"
         stop-color="#0a84ff"
         id="stop1494" />
    </linearGradient>
    <linearGradient
       inkscape:collect="always"
       xlink:href="#a"
       id="linearGradient851"
       x1="18"
       y1="22"
       x2="18"
       y2="12"
       gradientUnits="userSpaceOnUse" />
    <linearGradient
       inkscape:collect="always"
       xlink:href="#a"
       id="linearGradient853"
       x1="7"
       y1="22"
       x2="7"
       y2="2"
       gradientUnits="userSpaceOnUse" />
  </defs>
  <sodipodi:namedview
     pagecolor="#ffffff"
     bordercolor="#666666"
     borderopacity="1"
     objecttolerance="10"
     gridtolerance="10"
     guidetolerance="10"
     inkscape:pageopacity="0"
     inkscape:pageshadow="2"
     inkscape:window-width="1366"
     inkscape:window-height="699"
     id="namedview10"
     showgrid="true"
     inkscape:zoom="11.313709"
     inkscape:cx="17.296045"
     inkscape:cy="2.3035871"
     inkscape:window-x="0"
     inkscape:window-y="0"
     inkscape:window-maximized="1"
     inkscape:current-layer="svg8">
    <inkscape:grid
       type="xygrid"
       id="grid821" />
  </sodipodi:namedview>
  <g
     aria-label="f"
     style="font-style:normal;font-weight:normal;font-size:26.2723732px;line-height:1.25;font-family:sans-serif;letter-spacing:0px;word-spacing:0px;fill:url(#linearGradient853);fill-opacity:1;stroke:none;stroke-width:0.65680927"
     id="text839">
    <path
       d="M 3.5031599,22.000338 5.6070023,9.9545571 H 3.464675 L 3.7853827,8.1201092 h 2.129499 L 6.1457912,6.4780859 Q 6.4793272,4.3870718 7.7621579,3.2068675 9.1091302,1.97535 11.200144,2.0010066 q 0.654244,0 1.654852,0.2180813 l -0.282223,1.9370743 q -0.615759,-0.128283 -1.244346,-0.1539396 -1.205861,0 -1.9627307,0.7568701 Q 8.6216545,5.5031345 8.4420582,6.7474803 L 8.2368053,8.1201092 H 11.110346 L 10.789638,9.9545571 H 7.9160976 L 5.8250835,22.000338 Z"
       style="font-style:italic;font-variant:normal;font-weight:normal;font-stretch:normal;font-family:Roboto;-inkscape-font-specification:'Roboto Italic';fill:url(#linearGradient853);fill-opacity:1;stroke-width:0.65680927"
       id="path913" />
  </g>
  <g
     aria-label="x"
     style="font-style:normal;font-weight:normal;font-size:18.95269966px;line-height:1.25;font-family:sans-serif;letter-spacing:0px;word-spacing:0px;fill:url(#linearGradient851);fill-opacity:1;stroke:none;stroke-width:0.4738175"
     id="text843">
    <path
       d="m 17.145363,15.648702 2.720749,-3.646173 h 2.054443 l -4.016344,5.034311 2.443122,4.978785 h -1.823087 l -1.656511,-3.738716 -2.822545,3.738716 h -2.045189 l 4.136649,-5.145362 -2.369088,-4.867734 h 1.832341 z"
       style="font-style:italic;font-variant:normal;font-weight:normal;font-stretch:normal;font-family:Roboto;-inkscape-font-specification:'Roboto Italic';fill:url(#linearGradient851);fill-opacity:1;stroke-width:0.4738175"
       id="path916" />
  </g>
</svg>
